**kern	**kern	**kern	**kern
*staff4	*staff3	*staff2	*staff1
=1-	=1-	=1-	=1-
*clefF4	*clefGv2	*clefGv2	*clefG2
*k[]	*k[]	*k[]	*k[]
*met(C|)	*met(C|)	*met(C|)	*met(C|)
*M2/2	*M2/2	*M2/2	*M2/2
0r	0r	1G	1r
.	.	[1c	1g
=2	=2	=2	=2
0r	0r	2c\]	0cc
.	.	2d\	.
.	.	2e\	.
.	.	[2f\	.
=3	=3	=3	=3
0r	0r	4f\]	1cc
.	.	4e\	.
.	.	2a\	.
.	.	2g\	1dd
.	.	[2f\	.
=4	=4	=4	=4
0r	0r	4f\]	1cc
.	.	4e\	.
.	.	4d\	.
.	.	4c\	.
.	.	1d	1b
=5	=5	=5	=5
0r	0r	1.c	0cc
.	.	4B\	.
.	.	4A/	.
=6	=6	=6	=6
0r	0r	2B\	1dd
.	.	1G	.
.	.	.	[1ee
.	.	4c\	.
.	.	4d\	.
=7	=7	=7	=7
!!linebreak:default
0r	0r	4e\	1ee]
.	.	4f\	.
.	.	1g	.
.	.	.	2.dd\
.	.	2f\	.
.	.	.	4ee\
=8	=8	=8	=8
0r	0r	2a\	2ff\
.	.	2g\	2.ee\
.	.	1c	.
.	.	.	4dd\
.	.	.	[2cc\
=9	=9	=9	=9
0r	0r	1d	2cc\]
.	.	.	2b\
.	.	1c	[1cc
=10	=10	=10	=10
0r	0r	2r	1cc]
.	.	2.e\	.
.	.	.	1ee
.	.	4f\	.
.	.	4g\	.
.	.	4a\	.
=11	=11	=11	=11
0r	0r	2g\	0gg
.	.	1c	.
.	.	2g\	.
=12	=12	=12	=12
0r	0r	2a\	1ff
.	.	2f\	.
.	.	2a\	2.ee\
.	.	[2g\	.
.	.	.	8dd\L
.	.	.	8ee\J
=13	=13	=13	=13
0r	0r	4g\]	2dd\
.	.	4f\	.
.	.	4e\	1cc
.	.	4c\	.
.	.	1d	.
.	.	.	2b\
=14	=14	=14	=14
!!linebreak:default
0r	0r	1.c	0cc
.	.	2B\	.
=15	=15	=15	=15
0r	0r	1A	1cc
.	.	2.G/	[1dd
.	.	4A/	.
=16	=16	=16	=16
0r	0r	4B\	1dd]
.	.	4c\	.
.	.	2.d\	.
.	.	.	1b
.	.	4B\	.
.	.	[2e\	.
=17	=17	=17	=17
0r	0r	4e\]	1cc
.	.	4d\	.
.	.	2.a\	.
.	.	.	2b\
.	.	4g\	.
.	.	[2g\	2g/
=18	=18	=18	=18
0r	0r	2g\]	1a
.	.	2f#\	.
.	.	[1g	[1g
=19	=19	=19	=19
0r	0r	2g\]	1g]
.	.	4f\	.
.	.	4e\	.
.	.	2f\	1dd
.	.	2g\	.
=20	=20	=20	=20
0r	0r	2d\	0dd
.	.	2.g\	.
.	.	4e\	.
.	.	4f\	.
.	.	4g\	.
=21	=21	=21	=21
!!pagebreak:default
0r	0r	2e\	1cc
.	.	1a	.
.	.	.	2.b\
.	.	2g\	.
.	.	.	4g/
=22	=22	=22	=22
1r	0r	2f\	2a/
.	.	2e\	1cc
1G	.	1d	.
.	.	.	2b\
=23	=23	=23	=23
0c	0r	2.c\	0cc
.	.	4d\	.
.	.	2e\	.
.	.	4c\	.
.	.	4d\	.
=24	=24	=24	=24
1c	0r	4e\	0r
.	.	4f\	.
.	.	1g	.
1d	.	.	.
.	.	2f\	.
=25	=25	=25	=25
1c	1r	2e\	0r
.	.	2c\	.
1B	1G	1d	.
=26	=26	=26	=26
1c	0c	0c	0r
2r	.	.	.
[2C/	.	.	.
=27	=27	=27	=27
2C/]	1c	0r	0r
2A\	.	.	.
2G\	1d	.	.
[2F\	.	.	.
=28	=28	=28	=28
!!linebreak:default
2F\]	1c	0r	0r
2E\	.	.	.
1D	1B	.	.
=29	=29	=29	=29
0C	0c	2r	0r
.	.	2G/	.
.	.	4A/	.
.	.	4G/	.
.	.	[2c\	.
=30	=30	=30	=30
1r	1d	2c\]	0r
.	.	2B\	.
2r	[1e	2c\	.
2G\	.	2B\	.
=31	=31	=31	=31
4A\	1e]	1c	0r
4G\	.	.	.
1c	.	.	.
.	1d	1G	.
2B\	.	.	.
=32	=32	=32	=32
2c\	1.e	2r	0r
2B\	.	2G/	.
2c\	.	4A/	.
.	.	4G/	.
2A\	2c\	[2c\	.
=33	=33	=33	=33
1G	1d	2c\]	0r
.	.	2B\	.
[1C	[1c	1c	.
=34	=34	=34	=34
1C]	1c]	2r	1ee
.	.	1c	.
1r	1r	.	[1gg
.	.	4B\	.
.	.	4A/	.
=35	=35	=35	=35
!!linebreak:default
0r	0r	2B\	1gg]
.	.	2c\	.
.	.	1d	1ff
=36	=36	=36	=36
2r	0r	0c	1.ee
1c	.	.	.
4B\	.	.	4dd\
4A\	.	.	4cc\
=37	=37	=37	=37
2B\	0r	0r	2dd\
2c\	.	.	1cc
1d	.	.	.
.	.	.	2b\
=38	=38	=38	=38
0c	1r	2r	0cc
.	.	1c	.
.	1e	.	.
.	.	4B\	.
.	.	4A/	.
=39	=39	=39	=39
1r	0g	2B\	0r
.	.	2c\	.
1G	.	1d	.
=40	=40	=40	=40
1.A	1f	2c\	0r
.	.	2F/	.
.	2.e\	2.c\	.
2G\	.	.	.
.	8d\L	4B\	.
.	8e\J	.	.
=41	=41	=41	=41
2F\	2d\	4A/	0r
.	.	4G/	.
2E\	1c	1G	.
1D	.	.	.
.	2B\	2F/	.
=42	=42	=42	=42
!!linebreak:default
0C	0c	1.G	1r
.	.	.	1cc
.	.	2A/	.
=43	=43	=43	=43
[0G	0r	2B\	1.dd
.	.	2c\	.
.	.	2d\	.
.	.	2G/	2b\
=44	=44	=44	=44
1G]	1r	1g	1b
1A	1c	1e	2.cc\
.	.	.	4b\
=45	=45	=45	=45
0D	1.d	1.f	4a/
.	.	.	4g/
.	.	.	1a
.	2B\	2d\	[2b\
=46	=46	=46	=46
0r	1B	1d	4b\]
.	.	.	4g/
.	.	.	1g
.	1c	1e	.
.	.	.	[2a/
=47	=47	=47	=47
0r	2B\	2d\	4a/]
.	.	.	4g/
.	2G/	1e	1g
.	1A	.	.
.	.	4d\	2f#/
.	.	4c\	.
=48	=48	=48	=48
1r	0G	2e\	2g/
.	.	2.d\	1dd
1G	.	.	.
.	.	4e\	.
.	.	[2g\	4cc\
.	.	.	4b\
=49	=49	=49	=49
!!pagebreak:default
1A	1r	2g\]	1cc
.	.	2f\	.
1G	1d	1g	2b\
.	.	.	2g/
=50	=50	=50	=50
1r	0d	1f	2a/
.	.	.	1cc
1G	.	1g	.
.	.	.	2b\
=51	=51	=51	=51
1A	1c	2.e\	1cc
.	.	4f\	.
1G	2.B\	2e\	1r
.	.	[2d\	.
.	4G/	.	.
=52	=52	=52	=52
2F\	2A/	2d\]	0r
2E\	1c	2c\	.
1D	.	1d	.
.	2B\	.	.
=53	=53	=53	=53
1C	0c	0e	1r
2r	.	.	1g
[2c\	.	.	.
=54	=54	=54	=54
2c\]	2r	0r	1a
4B\	2c\	.	.
4A\	.	.	.
2B\	2d\	.	1g
2c\	2e\	.	.
=55	=55	=55	=55
2F\	2f\	0r	1a
1c	1e	.	.
.	.	.	2g/
4B\	4d\	.	[2gg\
4A\	4c\	.	.
=56	=56	=56	=56
!!linebreak:default
2B\	2d\	1r	4gg\]
.	.	.	4ff\
2c\	2e\	.	1ee
1A	1c	1e	.
.	.	.	4dd\
.	.	.	4cc\
=57	=57	=57	=57
1.G	1d	0g	0b
.	1G	.	.
2F\	.	.	.
=58	=58	=58	=58
2.E\	0r	1g	1b
4D\	.	.	.
1d	.	2.f\	[1a
.	.	4d\	.
=59	=59	=59	=59
2c\	1r	2e\	2a/]
2B\	.	1d	2g/
1A	1e	.	1cc
.	.	2c\	.
=60	=60	=60	=60
1.G	0g	1d	0b
.	.	[1G	.
2F\	.	.	.
=61	=61	=61	=61
2.E\	1g	2G/]	0r
.	.	4A/	.
4D\	.	4B\	.
1A	2.f\	2.c\	.
.	8e\L	4A/	.
.	8f\J	.	.
=62	=62	=62	=62
2G\	2e\	2B\	0r
2F\	1d	1A	.
1E	.	.	.
.	2c#\	2G/	.
=63	=63	=63	=63
!!linebreak:default
2.D\	0d	1.A	0r
4E\	.	.	.
2F\	.	.	.
2G\	.	2B\	.
=64	=64	=64	=64
2E\	1e	2G/	0r
1A	.	1c	.
.	[1c	.	.
2F\	.	2A/	.
=65	=65	=65	=65
2E\	1c]	2G/	0r
1A	.	2.c\	.
.	1f	.	.
.	.	4B\	.
4D\	.	2d\	.
4E\	.	.	.
=66	=66	=66	=66
4F\	1f	2A/	0r
4G\	.	.	.
2.A\	.	2.c\	.
.	1e	.	.
4G\	.	4B\	.
2E\	.	2G/	.
=67	=67	=67	=67
2F\	1d	2A/	1r
2G\	.	2B\	.
[1C	[1e	2G/	2r
.	.	[2c\	2g/
=68	=68	=68	=68
1C]	1e]	4c\]	2.cc\
.	.	4d\	.
.	.	4e\	.
.	.	4f\	4dd\
1r	1r	2g\	4ee\
.	.	.	4dd\
.	.	2a\	[2ff\
=69	=69	=69	=69
0r	0r	1e	4ff\]
.	.	.	4ee\
.	.	.	1ee
.	.	1f	.
.	.	.	2dd\
=70	=70	=70	=70
!!linebreak:default
1r	0r	0e	2ee\
.	.	.	1cc
1A	.	.	.
.	.	.	4b\
.	.	.	4a/
=71	=71	=71	=71
0c	0r	1r	0g
.	.	1e	.
=72	=72	=72	=72
1c	0r	1.g	0r
[1B	.	.	.
.	.	2f\	.
=73	=73	=73	=73
2B\]	1r	2d\	0r
2G\	.	2e\	.
1A	1e	1c	.
=74	=74	=74	=74
0G	0g	1d	1r
.	.	1G	1b
=75	=75	=75	=75
0r	1g	0r	0dd
.	[1f	.	.
=76	=76	=76	=76
0r	2f\]	0r	1dd
.	2d\	.	.
.	1e	.	1cc
=77	=77	=77	=77
!!pagebreak:default
0r	0d	0r	2b\
.	.	.	1a
.	.	.	4g/
.	.	.	4f/
=78	=78	=78	=78
0r	1e	0r	2g/
.	.	.	1c
.	[1c	.	.
.	.	.	[2cc\
=79	=79	=79	=79
0r	1c]	0r	2cc\]
.	.	.	2b\
.	1f	.	1a
=80	=80	=80	=80
0r	1e	0r	2.g/
.	.	.	8f/L
.	.	.	8e/J
.	2d\	.	2f/
.	2B\	.	2g/
=81	=81	=81	=81
0r	1c	1r	2e/
.	.	.	1g
.	[1B	2.G/	.
.	.	.	4f/
.	.	4A/	4e/
=82	=82	=82	=82
2r	1B]	4B\	0d
.	.	4c\	.
2.G\	.	2d\	.
.	1d	2B\	.
4A\	.	.	.
4B\	.	2d\	.
4c\	.	.	.
=83	=83	=83	=83
2d\	0B	1G	0r
2B\	.	.	.
2d\	.	2r	.
2G\	.	2d\	.
=84	=84	=84	=84
!!linebreak:default
4C/	1c	1e	0r
4D\	.	.	.
4E\	.	.	.
4F\	.	.	.
2G\	2.B\	2d\	.
2E\	.	[2g\	.
.	4A/	.	.
=85	=85	=85	=85
2G\	2B\	2g\]	0r
2C/	1c	2e\	.
1D	.	2.f\	.
.	2B\	.	.
.	.	4g\	.
=86	=86	=86	=86
[0C	[0c	1e	2r
.	.	.	2.c/
.	.	2.c\	.
.	.	.	4d/
.	.	.	4e/
.	.	4d\	4f/
=87	=87	=87	=87
0C]	0c]	4e\	2g/
.	.	4f\	.
.	.	2g\	2e/
.	.	2e\	2g/
.	.	2g\	2c/
=88	=88	=88	=88
0r	0r	4c\	2.g/
.	.	4d\	.
.	.	4e\	.
.	.	4f\	4a/
.	.	2g\	4b\
.	.	.	4cc\
.	.	2G/	[2dd\
=89	=89	=89	=89
0r	0r	2B\	4dd\]
.	.	.	4cc\
.	.	2c\	1cc
.	.	1d	.
.	.	.	2b\
=90	=90	=90	=90
0r	1r	[0c	0cc
.	1e	.	.
=91	=91	=91	=91
!!linebreak:default
1r	1.g	0c]	0r
1E	.	.	.
.	4f\	.	.
.	4e\	.	.
=92	=92	=92	=92
1.G	2d\	0r	0r
.	2.e\	.	.
.	4d\	.	.
2D\	[2f\	.	.
=93	=93	=93	=93
2.F\	4f\]	0r	0r
.	4e\	.	.
.	1d	.	.
4G\	.	.	.
1E	.	.	.
.	2c#\	.	.
=94	=94	=94	=94
0D	2.d\	0r	0r
.	4c\	.	.
.	2A/	.	.
.	[2B\	.	.
=95	=95	=95	=95
2.E\	4B\]	0r	0r
.	4G/	.	.
.	1G	.	.
4C/	.	.	.
1C	.	.	.
.	[2c\	.	.
=96	=96	=96	=96
1c	4c\]	0r	0r
.	4d\	.	.
.	4e\	.	.
.	4c\	.	.
2B\	2d\	.	.
[2A\	[2f\	.	.
=97	=97	=97	=97
4A\]	4f\]	0r	0r
4G\	4e\	.	.
4F\	1e	.	.
4E\	.	.	.
1F	.	.	.
.	2d\	.	.
=98	=98	=98	=98
!!linebreak:default
[0E	[0e	0r	1r
.	.	.	1ee
=99	=99	=99	=99
0E]	0e]	1r	1.gg
.	.	1e	.
.	.	.	4ff\
.	.	.	4ee\
=100	=100	=100	=100
0r	0r	1.g	2dd\
.	.	.	2.ee\
.	.	.	4dd\
.	.	2d\	[2ff\
=101	=101	=101	=101
0r	0r	2.f\	4ff\]
.	.	.	4ee\
.	.	.	1dd
.	.	4g\	.
.	.	1e	.
.	.	.	2cc#\
=102	=102	=102	=102
0r	0r	1d	1.dd
.	.	2.g\	.
.	.	.	[2ee\
.	.	4c\	.
=103	=103	=103	=103
0r	0r	2c\	4ee\]
.	.	.	4cc\
.	.	2f\	1cc
.	.	2e\	.
.	.	[2d\	[2ff\
=104	=104	=104	=104
0r	0r	2d\]	2ff\]
.	.	4c\	4ee\
.	.	4B\	4dd\
.	.	2c\	2ee\
.	.	2d\	[2dd\
=105	=105	=105	=105
!!pagebreak:default
0r	0r	1G	2dd\]
.	.	.	4cc\
.	.	.	4b\
.	.	1A	2.cc\
.	.	.	4dd\
=106	=106	=106	=106
0r	0r	1G	2b\
.	.	.	1dd
.	.	2r	.
.	.	2g\	4cc\
.	.	.	4b\
=107	=107	=107	=107
0r	0r	2e\	2cc\
.	.	2f\	2dd\
.	.	1g	2b\
.	.	.	2g/
=108	=108	=108	=108
0r	0r	1c	4a/
.	.	.	4g/
.	.	.	1cc
.	.	1d	.
.	.	.	2b\
=109	=109	=109	=109
0r	0r	0c	1cc
.	.	.	1r
=110	=110	=110	=110
0r	0r	2r	1g
.	.	1c	.
.	.	.	1a
.	.	[2d\	.
=111	=111	=111	=111
0r	0r	2d\]	2b\
.	.	2e\	1cc
.	.	1f	.
.	.	.	2cc\
=112	=112	=112	=112
!!linebreak:default
0r	0r	2f\	1dd
.	.	1g	.
.	.	.	2b\
.	.	2e\	[2cc\
=113	=113	=113	=113
0r	0r	2.f\	4cc\]
.	.	.	4b\
.	.	.	4a/
.	.	4e\	4g/
.	.	4d\	2a/
.	.	4c\	.
.	.	2d\	[2b\
=114	=114	=114	=114
0r	0r	4e\	2b\]
.	.	4d\	.
.	.	1g	2g/
.	.	.	1a
.	.	2f#\	.
=115	=115	=115	=115
0r	0r	0g	1g
.	.	.	2r
.	.	.	[2g/
=116	=116	=116	=116
0r	0r	1c	2g/]
.	.	.	2a/
.	.	2d\	2b\
.	.	2e\	[2cc\
=117	=117	=117	=117
0r	0r	1f	2cc\]
.	.	.	2cc\
.	.	2f\	1dd
.	.	[2g\	.
=118	=118	=118	=118
0r	0r	2g\]	2b\
.	.	2e\	1cc
.	.	1f	.
.	.	.	2dd\
=119	=119	=119	=119
!!linebreak:default
0r	0r	2g\	2ee\
.	.	2a\	2cc\
.	.	2f\	2dd\
.	.	2g\	[2b\
=120	=120	=120	=120
0r	0r	1e	2b\]
.	.	.	2cc\
.	.	2f\	2.dd\
.	.	[2g\	.
.	.	.	4cc\
=121	=121	=121	=121
0r	0r	4g\]	4b\
.	.	4f\	4a/
.	.	4e\	2b\
.	.	4d\	.
.	.	2e\	1g
.	.	[2c\	.
=122	=122	=122	=122
0r	0r	2c\]	4a/
.	.	.	4g/
.	.	2e\	1cc
.	.	1d	.
.	.	.	2b\
=123	=123	=123	=123
0r	0r	1.c	0cc
.	.	4B\	.
.	.	4A/	.
=124	=124	=124	=124
1r	1G	1B	1r
1C	[1A	1c	1cc
=125	=125	=125	=125
1D	1A]	1r	1ff
1D	1B	1F	1ff
=126	=126	=126	=126
!!linebreak:default
1C	0c	1G	1.ee
1C	.	1g	.
.	.	.	2cc\
=127	=127	=127	=127
1.F	1c	1.a	1cc
.	[1d	.	[1ff
2D\	.	2f\	.
=128	=128	=128	=128
1D	1d]	1f	2ff\]
.	.	.	2dd\
1G	1B	2r	1dd
.	.	[2g\	.
=129	=129	=129	=129
1r	1.c	4g\]	0ee
.	.	4f\	.
.	.	4e\	.
.	.	4d\	.
1C	.	1e	.
.	2A/	.	.
=130	=130	=130	=130
2.D\	1A	0r	0r
4C/	.	.	.
2D\	1B	.	.
2E\	.	.	.
=131	=131	=131	=131
2F\	2A/	0r	0r
2.G\	2G/	.	.
.	1A	.	.
4F#\	.	.	.
4F#\	.	.	.
4E\	.	.	.
=132	=132	=132	=132
0G	1G	2r	1r
.	.	2d\	.
.	1r	2.g\	1dd
.	.	4f\	.
=133	=133	=133	=133
!!pagebreak:default
1r	1G	4e\	1gg
.	.	4d\	.
.	.	2.c\	.
1C	[1A	.	1ee
.	.	4B\	.
.	.	4A/	.
.	.	4G/	.
=134	=134	=134	=134
1D	1A]	2.F/	1.ff
.	.	4E/	.
1D	1B	1F	.
.	.	.	2ff\
=135	=135	=135	=135
1C	0c	1G	1.ee
1C	.	1g	.
.	.	.	2cc\
=136	=136	=136	=136
1.F	1c	1.a	1cc
.	[1d	.	[1ff
2D\	.	2f\	.
=137	=137	=137	=137
1D	1d]	1f	2ff\]
.	.	.	2dd\
1G	1B	2r	2.dd\
.	.	2b-\	.
.	.	.	4ee\
=138	=138	=138	=138
1A	0c	2a\	2ff\
.	.	2.g\	1ee
1A	.	.	.
.	.	4f#\	.
.	.	4f#\	4dd\
.	.	4e\	4cc\
=139	=139	=139	=139
2.G\	1d	[0g	0b
4F\	.	.	.
4E\	[1e	.	.
4D\	.	.	.
2E\	.	.	.
=140	=140	=140	=140
!!linebreak:default
1C	2e\]	0g]	0r
.	2c\	.	.
1G	1d	.	.
=141	=141	=141	=141
2.A\	2.c\	1e	1r
4G\	4B\	.	.
4F\	2c\	1f	1a
4E\	.	.	.
2F\	[2d\	.	.
=142	=142	=142	=142
2.G\	4d\]	1d	1b
.	4c\	.	.
.	4B\	.	.
4F\	4A/	.	.
4E\	2B\	[1e	1g
4D\	.	.	.
2E\	2G/	.	.
=143	=143	=143	=143
2C/	4A/	2e\]	1cc
.	4G/	.	.
2E\	1c	2c\	.
1D	.	1f	1dd
.	2B\	.	.
=144	=144	=144	=144
[0C	[0c	[0e	2.ee\
.	.	.	4ff\
.	.	.	2gg\
.	.	.	[2cc\
=145	=145	=145	=145
0C_	0c_	0e_	4cc\]
.	.	.	4b\
.	.	.	2g/
.	.	.	1a
=146	=146	=146	=146
0C]	0c]	0e]	0g
.	.	!!linebreak:default	.
=147	=147	=147	=147
!!linebreak:default
0.r	1r	0.r	1cc
.	1r	.	1.gg
.	1c	.	.
.	.	.	2ff\
=148	=148	=148	=148
0.r	0g	0.r	1ee
.	.	.	1dd
.	1g	.	1b
=149	=149	=149	=149
0.r	1a	0.r	1cc
.	1g	.	1b
.	1f	.	1a
=150	=150	=150	=150
0.r	0g	0.r	0g
.	1a	.	1cc
=151	=151	=151	=151
0.r	0b	0.r	0dd
.	1g	.	1ee
=152	=152	=152	=152
0.r	0a	0.r	0cc
.	1f	.	1dd
=153	=153	=153	=153
!!linebreak:default
0.r	0g	0.r	0b
.	1a	.	1a
=154	=154	=154	=154
0.r	0cc	0.r	0ee
.	1cc	.	1ee
=155	=155	=155	=155
0.r	1b	0.r	1dd
.	1g	.	1ee
.	1a	.	1ff
=156	=156	=156	=156
0.r	0g	0.r	0gg
.	1a	.	1ff
=157	=157	=157	=157
0.r	0g	0.r	1ee
.	.	.	1.dd
.	1f	.	.
.	.	.	2cc\
=158	=158	=158	=158
0.r	1e	0.r	0cc
.	1c	.	.
.	1d	.	1b
=159	=159	=159	=159
0.r	0c	0.r	1cc
.	.	.	1.gg
.	1e	.	.
.	.	.	2ff\
=160	=160	=160	=160
!!pagebreak:default
0.r	0g	0.r	1ee
.	.	.	1.dd
.	1e	.	.
.	.	.	2cc\
=161	=161	=161	=161
0.r	1f	0.r	0cc
.	1e	.	.
.	1d	.	1b
=162	=162	=162	=162
0r	0c	1r	[0cc
.	.	1c	.
=163	=163	=163	=163
1r	1c	1.g	0cc]
1C	[1g	.	.
.	.	4f\	.
.	.	4e\	.
=164	=164	=164	=164
0G	2g\]	2d\	0r
.	4f\	2G/	.
.	4e\	.	.
.	2d\	2.B\	.
.	2G/	.	.
.	.	4c\	.
=165	=165	=165	=165
1G	1B	2d\	0r
.	.	1e	.
1A	1c	.	.
.	.	4d\	.
.	.	4c\	.
=166	=166	=166	=166
1G	2d\	2B\	0r
.	2e\	2G/	.
1F	4f\	1A	.
.	4e\	.	.
.	4d\	.	.
.	4c\	.	.
=167	=167	=167	=167
!!linebreak:default
0G	0B	2G/	0r
.	.	2.d\	.
.	.	4c\	.
.	.	4d\	.
.	.	4B\	.
=168	=168	=168	=168
1A	1r	2c\	0r
.	.	4B\	.
.	.	4A/	.
[1B	2r	1G	.
.	[2d\	.	.
=169	=169	=169	=169
1B]	4d\]	0r	0r
.	4c\	.	.
.	4d\	.	.
.	4B\	.	.
1A	2c\	.	.
.	4B\	.	.
.	4A/	.	.
=170	=170	=170	=170
1.B	1G	4G/	0r
.	.	4A/	.
.	.	4B\	.
.	.	4c\	.
.	1r	2d\	.
2G\	.	[2e\	.
=171	=171	=171	=171
1A	1r	2e\]	0r
.	.	4d\	.
.	.	4c\	.
[1G	4G/	2e\	.
.	4A/	.	.
.	4B\	2d\	.
.	4c\	.	.
=172	=172	=172	=172
1G]	2d\	0r	0r
.	1e	.	.
1A	.	.	.
.	4d\	.	.
.	4c\	.	.
=173	=173	=173	=173
0c	2.e\	2r	0r
.	.	4c\	.
.	4f\	4d\	.
.	1g	4e\	.
.	.	4f\	.
.	.	[2g\	.
=174	=174	=174	=174
!!linebreak:default
1c	1r	2g\]	0r
.	.	4f\	.
.	.	4e\	.
[1B	4G/	1d	.
.	4A/	.	.
.	4B\	.	.
.	4c\	.	.
=175	=175	=175	=175
2B\]	4d\	0r	0r
.	4G/	.	.
2G\	2.g\	.	.
1A	.	.	.
.	4e\	.	.
.	2f#\	.	.
=176	=176	=176	=176
0G	1g	4G/	0r
.	.	4A/	.
.	.	4B\	.
.	.	4c\	.
.	1r	4d\	.
.	.	4G/	.
.	.	[2g\	.
=177	=177	=177	=177
1A	1r	4g\]	0r
.	.	4e\	.
.	.	2f#\	.
[1G	4G/	2g\	.
.	4A/	.	.
.	4B\	4G/	.
.	4c\	4A/	.
=178	=178	=178	=178
1G]	2.d\	4B\	0r
.	.	4c\	.
.	.	2.d\	.
.	4c\	.	.
1F	4A/	.	.
.	4B\	4c\	.
.	4c\	4A/	.
.	4d\	4B\	.
=179	=179	=179	=179
1.E	4e\	4c\	0r
.	4f\	4d\	.
.	2g\	4e\	.
.	.	4f\	.
.	2G/	2g\	.
2C/	[2c\	[2a\	.
=180	=180	=180	=180
1D	4c\]	2a\]	0r
.	4A/	.	.
.	2B\	4g\	.
.	.	4f\	.
[1C	2c\	2e\	.
.	[2g\	4c\	.
.	.	4d\	.
=181	=181	=181	=181
!!linebreak:default
1C]	4g\]	4e\	0r
.	4f\	4f\	.
.	1e	1g	.
1E	.	.	.
.	4d\	4f\	.
.	4c\	4e\	.
=182	=182	=182	=182
0G	0B	1d	0r
.	.	2r	.
.	.	[2G/	.
=183	=183	=183	=183
1E	0r	4G/]	0r
.	.	4A/	.
.	.	4B\	.
.	.	4c\	.
1F	.	4A/	.
.	.	4G/	.
.	.	[2d\	.
=184	=184	=184	=184
2E\	0r	4d\]	0r
.	.	4c\	.
2C/	.	1c	.
1D	.	.	.
.	.	2B\	.
=185	=185	=185	=185
[0C	1r	[0c	0r
.	1e	.	.
=186	=186	=186	=186
0C]	1.g	0c]	1r
.	.	.	2r
.	2e\	.	[2g/
=187	=187	=187	=187
0r	1e	0r	4g/]
.	.	.	4a/
.	.	.	4b\
.	.	.	4cc\
.	1f	.	4a/
.	.	.	4g/
.	.	.	[2dd\
=188	=188	=188	=188
!!pagebreak:default
0r	2e\	0r	4dd\]
.	.	.	4cc\
.	2c\	.	1cc
.	1d	.	.
.	.	.	2b\
=189	=189	=189	=189
1r	0.c	1r	0cc
1r	.	1r	.
1C	.	1c	1g
=190	=190	=190	=190
0F	1r	0A	0a
.	1r	.	.
1F	1f	1c	1a
=191	=191	=191	=191
0G	0d	1.B	0b
.	.	2G/	.
1D	1f	1d	1a
=192	=192	=192	=192
0A	0e	0.c	0cc
1F	1f	.	1a
=193	=193	=193	=193
0G	0d	1r	0b
.	.	1r	.
1G	1e	1g	1b
=194	=194	=194	=194
0A	0c	1.e	1cc
.	.	.	1a
.	.	2f\	.
1G	1d	1g	1b
=195	=195	=195	=195
!!linebreak:default
1.F	0A	0c	0cc
2E\	.	.	.
1D	1B	1d	1r
=196	=196	=196	=196
[0.C	0c	0e	0.r
.	1e	1c	.
=197	=197	=197	=197
0.C]	0g	0c	1r
.	.	.	1r
.	1a	1c	1ee
=198	=198	=198	=198
0.r	0g	0c	0gg
.	1f	1F	1aa
=199	=199	=199	=199
0.r	0e	0c	0gg
.	1d	1r	1ff
=200	=200	=200	=200
0C	0c	0g	0ee
1G	1B	1g	1dd
=201	=201	=201	=201
1E	0c	1g	0cc
1F	.	1a	.
1D	1d	1f	1b
=202	=202	=202	=202
!!linebreak:default
0C	0e	0.g	0cc
1r	1f	.	1dd
=203	=203	=203	=203
0.r	1.e	1r	0ee
.	.	1r	.
.	2c\	.	.
.	1d	1f	1ff
=204	=204	=204	=204
0.r	1.c	1g	1.ee
.	.	1a	.
.	2A/	.	2cc\
.	1B	1g	1dd
=205	=205	=205	=205
0.r	0c	1e	1.cc
.	.	1f	.
.	.	.	2a/
.	1r	1d	1b
=206	=206	=206	=206
0.r	0.r	0.c	0cc
.	.	.	1g
=207	=207	=207	=207
0.r	1c	0.r	0cc
.	0f	.	.
.	.	.	1a
=208	=208	=208	=208
0.r	1d	0.r	0b
.	0e	.	.
.	.	.	1cc
=209	=209	=209	=209
!!linebreak:default
0.r	1f	0.r	0a
.	0d	.	.
.	.	.	1b
=210	=210	=210	=210
0.r	1e	0.r	1.g
.	1c	.	.
.	.	.	2e/
.	1d	.	1f
=211	=211	=211	=211
0.r	1.c	0.r	1.e
.	2A/	.	2c/
.	1B	.	1d
=212	=212	=212	=212
1r	0.c	1r	1c
1r	.	1r	1.g
1C	.	1c	.
.	.	.	2a/
=213	=213	=213	=213
0G	1r	1d	1b
.	1r	1e	1g
1A	1c	1c	1cc
=214	=214	=214	=214
1.G	0g	1d	0b
.	.	1e	.
2E\	.	.	.
1F	1a	1A	1r
=215	=215	=215	=215
0E	1.g	1.B	0.r
.	2e\	2c\	.
1D	1f	1d	.
=216	=216	=216	=216
!!pagebreak:default
0C	0e	1G	1r
.	.	1A	1r
1BB	1d	1B	1dd
=217	=217	=217	=217
0C	0c	0.G	0ee
1G	1B	.	1dd
=218	=218	=218	=218
1.A	0c	0.r	1.cc
2E\	.	.	2b\
1F	1d	.	1a
=219	=219	=219	=219
0.E	0.e	1r	0g
.	.	1r	.
.	.	1g	1gg
=220	=220	=220	=220
0.r	0.r	1a	1.ff
.	.	1f	.
.	.	.	2ee\
.	.	1g	1dd
=221	=221	=221	=221
1r	1r	1e	1cc
1r	1r	1f	1a
1G	1g	1d	1b
=222	=222	=222	=222
1A	1e	0c	0cc
1F	1f	.	.
1G	1d	1r	1r
=223	=223	=223	=223
!!linebreak:default
1E	1.c	0.r	0.r
1F	.	.	.
.	2A/	.	.
1D	1B	.	.
=224	=224	=224	=224
0.C	0.c	1r	1r
.	.	1r	1r
.	.	1g	1gg
=225	=225	=225	=225
0.r	0.r	1a	1.ff
.	.	1f	.
.	.	.	2ee\
.	.	1g	1dd
=226	=226	=226	=226
0.r	0.r	1e	1cc
.	.	1f	1a
.	.	1d	1b
=227	=227	=227	=227
1r	1r	0c	0cc
2r	2r	.	.
2C/	2c\	.	.
=228	=228	=228	=228
1G	1e	0r	0r
1A	1f	.	.
=229	=229	=229	=229
1G	1g	1r	1r
1A	2e\	1c	2r
.	[2f\	.	2cc\
=230	=230	=230	=230
!!linebreak:default
2E\	4f\]	1g	1ee
.	4e\	.	.
2G\	1e	.	.
1F	.	1a	1ff
.	2d\	.	.
=231	=231	=231	=231
1E	1e	1g	1gg
1r	1r	1a	2ee\
.	.	.	[2ff\
=232	=232	=232	=232
0r	0r	2e\	4ff\]
.	.	.	4ee\
.	.	2g\	1ee
.	.	1f	.
.	.	.	2dd\
=233	=233	=233	=233
1r	0r	0e	1ee
2r	.	.	1gg
2c\	.	.	.
=234	=234	=234	=234
2d\	1r	1r	2ff\
2B\	.	.	1gg
1c	1g	2r	.
.	.	2c\	4ff\
.	.	.	4ee\
=235	=235	=235	=235
0r	2f\	2d\	1dd
.	1g	2B\	.
.	.	2c\	2ee\
.	4f\	[2d\	[2ff\
.	4e\	.	.
=236	=236	=236	=236
!!linebreak:default
1r	1d	2d\]	2ff\]
.	.	4c\	4ee\
.	.	4B\	4dd\
2r	2e\	2A/	1cc
2A\	[2f\	2a\	.
=237	=237	=237	=237
2B\	2f\]	2d\	2dd\
2c\	4e\	2.g\	1ee
.	4d\	.	.
1A	1c	.	.
.	.	4e\	.
.	.	2f#\	4dd\
.	.	.	4cc\
=238	=238	=238	=238
[0G	1d	[0g	[0b
.	1e	.	.
=239	=239	=239	=239
0G]	0d	0g]	0b]
=240	=240	=240	=240
0C	0c	0e	0cc
=241	=241	=241	=241
0C	0c	0e	0cc
==	==	==	==
*-	*-	*-	*-
